X: 10673
M: C|
L: 1/8
K: Em
uB2 |\
e2e2 efge | d2B2 B2(dB) | ABde faef | d2A2 A2(Bd) |\
e2ef g2fe | dBGB d2(BA) | GFGE DEFA | G2E2 E2 :||: u(GA) |
(GF)GE g2ge | dBGB d2(BA) | GFGE DEFA | G2E2 E2 :|


